X:150
T:Sean McGuire's
M:4/4
L:1/8
C:Bert Murray
R:reel
D:Dan: All Things Considered
Z:Devin McCabe
K:A
ce e/2e/2e fe^de | aecA EAce | dffe f3g | abga fede |
ce e/2e/2e fe^de | aecA EAce | d3B ceAc |1 BAGB ABcd :|2 BAGB ABce |:
ac'c'e ac'ed | c2Bc ABce | fBB^A Bcde | f^efg agf=e |
ac'c'e ac'ed | c2Bc ABce | dffd ceec |1 BAGB ABce :|2 BAGB ABcd |]
